X: 29344
T: Newfoundland, The
R: reel
M: 4/4
K: Dmajor
BcdA B2 dA|D2 F/E/D ADFA|B~E3 BdcA|B/c/d eg fddA|
BcdA B/B/B dA|D/D/D FD ADFA|B~E3 BdcA|B/c/d eg fddc||
defg afed|cdef gece|defg afde|faeg fddc|
defg afed|cdef g/f/g fg|a/g/f ge fdef|afeg fdec||

